X:18896
T:Woman of the House, The
T:Bean an Tí ar lár
N:Setting from, and transcribed by, Alan Ng. Probably most influenced by Kevin Burke's setting
Z: id:ng-reels-41 transcribed by Alan Ng alan@alan-ng.net 27 Jan. 2001
R:reel
M:C|
K:GMaj
E:12
GB{d}BA ~B3A|GABd eBdB|A2GB ABcd|e~B3 eB{d}BA|\
GB{d}BA ~B3A|GABd eB{d}BA |~G3B A2GA|\
BGAG EG{A}G2::e~f3 edBd|edfd edBd|\
e~f3 edBd|e~a3 abag|~f3d edBd|~g3e dBAB|G3B A2GA|BGAG EG{A}G2:|*


